X:7
T:Polska från Västergötland
T:Svenska Folkdansar H4 nr 7
O:Västergötland
B:Traditioner av Svenska Folkdansar Häfte 4, nr 7
R:Polska
Z:Nils L
U:w=wedge
U:t=tenuto
M:3/4
L:1/8
K:Fm
F2 F2 (A>G) | =E2 F2 z>G | (A>B) wc2 c>B | (G2 A2) z>G |
AB c2 A>c | (cB) (GA) (FG) | (A>B) wc2 (Ac) | (cB) (GA) (FG) | (=E2 F2) z2 |]

